img/icon-close.svg

<svg width="24" height="24" xmlns="http://www.w3.org/2000/svg" fill-rule="evenodd" clip-rule="evenodd"><path d="M12 11.293l10.293-10.293.707.707-10.293 10.293 10.293 10.293-.707.707-10.293-10.293-10.293 10.293-.707-.707 10.293-10.293-10.293-10.293.707-.707 10.293 10.293z"/></svg>

<?xml version="1.0" encoding="utf-8"?>
<!-- Generator: Adobe Illustrator 22.0.0, SVG Export Plug-In . SVG Version: 6.00 Build 0)  -->
<svg version="1.1" id="Layer_1" xmlns="http://www.w3.org/2000/svg" xmlns:xlink="http://www.w3.org/1999/xlink" x="0px" y="0px"
	 viewBox="0 0 24 24" style="enable-background:new 0 0 24 24;" xml:space="preserve">
<style type="text/css">
	.st0{fill:#1E266D;}
</style>
<path class="st0" d="M12,11.3L22.3,1L23,1.7L12.7,12L23,22.3L22.3,23L12,12.7L1.7,23L1,22.3L11.3,12L1,1.7L1.7,1
	C1.7,1,12,11.3,12,11.3z"/>
</svg>
